X:1
T:Dueil et soucy
T:Dueil et soucy 3v
T:Tielman Susato
T:Source : Le premier Livre des Chansons à 3 parties---Anvers---T.Susato---1544. Editor : André Vierendeels (01/02/15).
C:Tielman Susato
%%score [ 1 2 3 ]
L:1/8
Q:1/4=80
M:2/2
K:C
V:1 treble nm="Superius" snm="S"
V:2 treble-8 nm="Tenor" snm="T"
V:3 bass nm="Bassus" snm="B"
V:1
 E8 | G4 F4 | E8- | E4 z2 E2 | E4 D4 | E6 E2 | G2 G2 A3 B | cB c4 BA | GFEF GA B2- |"^#" BA A4 G2 | %10
w: Dueil|et sou-|cy,|_ dueil|et sou-|cy me|tien- gnent en li-|es- * * * *|||
 A4 z2 E2 | E2 E2 G4 | G2 G2 E2 G2 | F2 E4 D2 | E6 C2 | D2 E2 DCB,A, | B,4 A,4 | z2 E2 F2 D2 | A8 | %19
w: se gail-|lard et gay|tout rem- ply de|tri- stes- *|se, de|tri- stes- * * * *|* se,|ay- mé de|tous,|
 z2 A2 A2 A2 | G2 F2 E2 A,B, | CDEF GA B2- | BA A4 G2 | A8 | z4 A4 | G4 A4 | E2 E2 G2 G2 | %27
w: chas- cun me|por- t'en- nuy- * *|||e,|de|pie- ca|mort mais suis en-|
 A3 B c2 d2- | d2 c4 B2 | c8 | z2 A2 c4 | B4 A4 | z2 A2 c4 | B4 A2 z A | A2 E2 G2 F2 | %35
w: coir en vi- *||e,|qu'en dic-|tes vous,|qu'en dic-|tes vous, mon|cueur a t'il des-|
 E3 F GA B2- | BA A4 G2 | A4 z2 A2 | c4 B4 | A4 z2 A2 | c4 B4 | A4 z2 A2 | A2 E2 G2 F2 | %43
w: tres- * * * *||se, qu'en|dic- tes|vous, qu'en|dic- tes|vous, mon|cueur a t'il des-|
 E3 F GA B2- | BA A4 G2 | A8 |] %46
w: tres- * * * *||se?|
V:2
 A4 c2 A2 | e4 z2 A2 | c3 B A2 G2 | A3 G AB c2- | c2 BA B4 | c2 A2 c3 d | e2 e2 f4 | e2 A2 c3 d | %8
w: Dueil et sou-|cy, dueil|et _ _ sou-|||cy me tien- gnent|en li- es-||
 e3 d c2 BA | G2 A2 B4 | A2 z A A2 A2 | c3 B/A/ B2 c2 | G2 c4 B2 | A2 G2 F4 | E2 c2 c2 A2 | %15
w: ||se, gail- lard et|gay _ _ _ tout|rem- ply de|tri- stes- *|se, tout rem- ply|
 G2 c2 BA A2- |"^#" A2 G2 A2 z A | c2 A2 d4 | z2 d2 d2 d2 | c3 B ABcd | e2 A3 Bcd | ef g3 f e2 | %22
w: de tri- * * stes-|* * se, ay-|mé de tous,|chas- cun me|por- t'en- nuy- * * *|||
 d2 c2 B4 | A4 z2 d2 | c2 d3 cAB | c2 B2 z2 A2 | c3 d e2 e2 | f4 e2 d2 | e2 dc d4 | c4 z2 A2 | %30
w: |e, de|pie- ca _ _ _|_ mort mais|suis _ _ en-|coir en vi-||e, qu'en|
 c3 B ABcd | e2 d2 f3 e | d2 cB ABcd | e2 z d d2 A2 | c4 B2 A2- | ABcd e2 d2- | dcBA B4 | %37
w: dic- * * * * *|vous, qu'en dic- *|* tes _ _ _ _ _|vous, mon- cueur a|t'il des- tres-|||
 A2 d2 f4 | e4 d2 d2 | f3 e d2 cB | ABcd e2 d2 | z2 d2 d2 A2 | c4 B2 A2- | ABcd e4 | d2 c2 B4 | %45
w: se, qu'en dic-|tes vous, qu'en|dic- * * * *|* * * * * vous,|mon cueur a|t'il des tres-|||
 A8 |] %46
w: se?|
V:3
 z8 | E,4 F,2 D,2 | A,4 z2 B,2 | C3 B, A,G, A,2- | A,G,E,F, G,4 | C,2 C2 C2 A,2 | %6
w: |Dueil et sou-|cy, dueil|et _ _ _ sou-||cy me tien- gnent|
 E,F,G,F, D,E,F,G, | A,3 G, F,4 | E,2 C,2 E,4- | E,2 F,2 E,4 | A,,4 z2 A,,2 | A,,2 A,,2 E,4 | %12
w: en _ _ _ _ _ _ _|li- * es-|se, en li-|* * es-|se, gail-|lard et gay|
 E,2 E,2 C,2 E,2 | F,2 G,2 A,4 | G,2 C,2 C2 C2 | B,2 A,2 D,2 F,2 | E,4 A,,4- | A,,4 z4 | %18
w: tout rem- ply de|tri- stes- *|se, tout rem- ply|de tri- stes- *|* se,|_|
"^#" D,4 F,2 D,2 | A,3 G, F,2 F,2 | E,2 D,2 A,4- | A,2 E,2 E,2 E,2 | G,2 A,2 E,4 | %23
w: ay- mé de|tous, _ _ chas-|cun me por-|* t'en- nuy- e,|por t'en- nuy-|
 A,,2 D,2 C,2 D,2 | A,,2 D,2 F,4 | E,4 D,E,F,G, | A,2 C2 C2 C2 | F,3 G, A,2 B,2 | C2 A,2 G,4 | %29
w: e, de pie- ca|mort, de pie-|ca mort _ _ _|_ mais suis en-|coir _ _ en|vi- * e,|
 z2 A,2 C3 B, | A,G, F,3 G, A,2 | E,2 G,2 F,2 D,2- | D,E,F,G, A,3 G, | E,F, G,2 D,4 | %34
w: qu'en dic- tes|_ _ vous, _ _|qu'en dic- tes vous|_ _ _ _ _ _||
 z A, A,2 E,2 F,G, | A,3 G,/F,/ E,F, G,2- | G,2 A,2 E,2 E,2 | F,2 D,2 D,E,F,G, | A,2 E,2 G,2 G,2 | %39
w: mon cueur a t'il des-|tres _ _ _ _ _|_ _ se, qu'en|dic- tes vous, _ _ _|_ qu'en dic- tes|
 D,3 C, D,E,F,G, |"^#" A,A, A,2 E,2 G,G, | F,2 D,4 z2 | A,2 A,2 E,2 F,G, | A,3 G,/F,/ E,3 F, | %44
w: vous, _ _ _ _ _|_ mon cueur a t'il des|tres- se,|mon cueur a t'il des-|tres- * * * *|
 G,2 A,2 E,4 | A,,8 |] %46
w: |se?|

